X:483
T:The home ruler
R:Hornpipe
C:Frank McCollum
O:Ireland
A:Ballycastle
S:My arrangement from various sources
Z:Transcription, arrangement, chords:Mike Long
M:4/4
L:1/8
K:D
"D"D2 FA DAFA|"D"dfed "G"B2dB|"D"AA/A/ AB AFDE|\
"A"(3(FED) (3(FED) "G"BDFA|"D"D2 FA DAFA|
"D"dfed "G"B2dB|"D"AA/A/ AB AFDE|"D"F2"A"EA "D"D4||"D"D2 FA DAFA|\
"D"dfed "G"B4|"D"AA/A/ dB AFDE|
"A"(3(FED) (3(FED) "G"B,DA,B,|"D"D2 FA DAFA|"D"dfed "G"B2 dB|\
"D"AA/A/ AB AFDE|"D"F2"A"EA "D"D4|]
|:"D"Addc d2df|"Bm"a2 bf afed|"G"ee/e/ ed BA (3(Bcd)|"A"fded "G"(3(Bcd) AB|
"D"d2 dc d2df|"Bm"a2bf afed|[1 "G"ee/e/ ed BAdB|"A"AFEF "D"D4:|[2 "G"efed BAdB|"A"AFEF "D"D4|]
